X:83
T:New Boe peep
R:Jig
M:6/8
L:1/8
Q:110
K:GMix
e/2f/2|g3 e3|ded B>cd|cdB A>GA/2B/2|G3-G2||
B|c>de e>dc|dB2 G2B|c>de e>dc|dB2 G2 e/2^f/2|g3-g2 ^f/2g/2|a3-a2 e/2^f/2
|g3-g2 ^f/2g/2|a3-a2 g/2a/2|b2e e2f|g2d Bcd|c2B A3|G2||

